X:535
T:Waltz op.39 no.15
Z:Jack Campin, http://www.campin.me.uk/
F:Jack Campin's Nine-Note Tunebook
% last edit 03-02-2013
C:Brahms 
M:3/4
L:1/8
Q:1/4=150
K:C
(E3C)       (CE)|(E3C)  (CE)|(F2{GF}) (E2 D2)|(E3C) (CG)|
(A3E)       (EG)|(A3E)  (EG)|(BA)      G2^F2 |(G3C) (CE)|
(E3C)       (CE)|(E3C)  (CE)|(F2{GF}) (E2 D2)|(E3C) (CG)|
(A3E)       (EG)|(A3E)  (EG)|(BA)      G2^F2 |(G3E) (EG)|
(G3D)       (DG)|(G3E)  (EG)|(c3G)       (Gc)|(c3A) (Ac)|
(d3A)       (Ac)|(cB)A2  G2 |(E3C)       (CE)|(E3C) (CE)|
(F2{GF}) (E2 D2)|(E3C) ( CG)|(A3E)       (EG)|(A3E) (EG)|
(cG)      F2 D2 | C2 zE (EG)|(G3D)       (DG)|(G3E) (EG)|
(c3G)       (Gc)|(c3A)  (Ac)|(d3A)       (Ac)|(cB) A2 G2|
(E3C)       (CE)|(E3C)  (CE)|(F2{GF}) (E2 D2)|(E3C) (CG)|
(A3E)       (EG)|(A3E)  (EG)|(cG)     (F2 D2)| C6      |]

